X:4076
L:1/4
M:3/4
K:C
"C" c z c/c/ | c z c/c/ | c c' c' |"G7" g z z |:"C" g a3/2 e/ | g a3/2 e/ |"G7" f B3/2 d/ | G3 | 
"F" f A3/2 c/ |"G7" B g g |1"C" e c3/2 a/ |"G7" g2 z :|2"G7" g f3/2 d/ |"C" c z B/c/ ||"C" (d'3 | 
 d') c' e |"Dm/F" d3 |"G7" d b a | B3 |"C" c a g | e/f/ g/a/ b/c'/ | d'3 | d' c' e |"Dm" d2 c' | 
 c'2 a |"G7" a2 g | g2 d |"C" c3/2 c'/ c' | c' z z |][K:F]"Bb" d c d |"C7" e a g |"F" g2 f | 
 z d' c' |"C7" c'2 b | z e d |"F" d2 c | z a a |"Bb" d ^c d |"C7" e a g |"D7" g ^f d' |"Gm" c'2 b | 
"C7/Bb" a/a/ g f |"F/A" c'3 |"C7" c/b/ a g |"F" f z z |]

